X:20
T:T013C- Murphy Delany
S:O'Farrell's Pocket Companion, I, c 1806
Q:1/4=120
L:1/8
M:6/8
K:D mixolydian
D/2E/2|G3G3|GAG Bcd|G2G GFG|EAG FED|\
G3G3|GAG Bcd|ege dcB|ABA FED::\
B2d ded|dgd dcB|c2e efe|ege edc|\
B2d ded|dgd def|gfe dcc|ABG FED:|]

